X:1
T:Title
%%score 1 { 2 | 3 }
L:1/8
Q:1/4=113
M:4/4
K:F
V:1 treble nm="Grand Piano, Staff 1"
V:2 bass nm="Choir Pad, Zebulon, 66.66.88"
V:3 bass 
V:1
 [Fc]4 [Fc]3 [GB] | [FA]2 [EG]2 F4 | [EG]4 [FA]2 [FA]2 | [GB]2 [FA]2 [EG]4 | [Ec]4 [Fc]3 [GB] | %5
w: By~Lowell~Mason,~1830 * *|||||
 [FA]2 [EG]2 F4 | [EG]4 [FA]2 [FA]2 | [GB]2 [FA]2 [EG]4 | [EG]4 [FA]3 [FB] | [Fc]2 [FA]2 [Fd]4 | %10
w: |||||
 [Fd]4 [Fc]4 | [Gc]4 [Fc]3 [EB] | [FA]2 F2 [FG]4 | [Ec]4 F4- | F4 z4 |] %15
w: |||||
V:2
 A,4 A,3 D | C2 B,2 A,4 | C4 C2 C2 | C2 C2 C4 | G,4 A,3 D | C2 B,2 A,4 | C4 C2 C2 | C2 C2 C4 | %8
 C4[K:bass] F,3 G, | A,2 C2 B,4 | B,4 A,4 | G,4 A,3 G, | F,2 C2 D4 | G,4 A,4- | A,4 z4 |] %15
V:3
 F,4 F,3 B,, | C,2 C,2 F,4 | C,4 F,2 F,2 | E,2 F,2 C,4 | C,4 F,3 B,, | C,2 C,2 F,4 | C,4 F,2 F,2 | %7
 E,2 F,2 C,4 | C,4 z2 z F, | F,2 F,2 B,,4 | D,4 F,4 | E,4 F,3 B,, | D,2 A,,2 B,,4 | C,4 F,4- | %14
 F,4 z4 |] %15

